X: 282
T:Legend
C:Tchaikovsky
N:words are a Russian translation of an American antisemitic fakelore ballad
M:2/4
L:1/8
Q:1/4=100
K:FMin
f2 fe|A3 B|c2 c2|F2 zc|f2 e2|A3  B|c2 c2|F4   |
F2 FG|A3 G|F2 E2|F4   |F2 FG|A3  G|F2 E2|F2 zc|
f2 e2|A3 B|c2 c2|F2 zc|f2 e2|A3  B|c2 c2|F4   |
zF FG|A3 G|F2 E2|F4   |F2 FG|A3  G|F2 E2|F4   |
f2 fe|A3 B|c2 c2|F2 zc|f3  e|A3  B|c2 c2|F4   |
F2 FG|A3 G|F2 E2|F4-  |FF FG|A3  G|F2 E2|F4   |
G2 GG|A3 A|B3  B|c3  c|e2 d2|c2 F2|A3  G|F4   |
G2 GG|A3 A|B3  B|c3  c|e2 d2|c2 F2|A2 G2|F4  |]

All the examples so far are of gradual and subtle shifts, moving between
adjacent points in the mode diagram.  Shifts follow the lines marked in
the Big Picture (that is, there are no shifts between gapped scales with
the same number of gaps; the only moves that occur are the opening and
filling of gaps, or changes of one step at a time in seven-note modes).
This is quite unlike the usual procedure in art music, where changes of
mode tend to be dramatic and unmistakable, usually between major and minor.
There are some examples like that in folk music, but they usually feel like
conscious exercises in weirdness.  There is nothing subtle about this:

